images/logos/colorful/timify.svg

<svg height="64" viewBox="0 0 45 64" width="45" xmlns="http://www.w3.org/2000/svg"><g fill="none" fill-rule="evenodd" transform="translate(-90 -8)"><path d="m0 0h224v80h-224z"/><path d="m105.447761 23.3333333h14.104478v14h-14.104478zm0 15.3333334h14.104478v14h-14.104478zm15.447761-30.6666667h14.104478v14h-14.104478zm-15.447761 0h14.104478v14h-14.104478zm-15.447761 0h14.104478v14h-14.104478zm0 52.6666667v2.1631154h3.3189915v9.1702179h2.7647939v-9.1702179h3.3191997v-2.1631154zm14.6452 4.0838786c-.091083.7593813-.160603 1.5629864-.224894 2.3943215-.064142.8313867-.128483 1.6682884-.176589 2.4996235-.058963.8369533-.10189 1.6182403-.139239 2.3555097h2.040134c.029366-.9903539.06152-1.9806171.096462-2.970777.042329-1.0611649.100595-2.1386172.185254-3.2272544l.419809 1.1988358c.149797.4488354.299793.903289.449689 1.346764.155375.4434749.294614.8755589.433853 1.2801705.144618.4102298.257065.7538146.358756 1.0420424h1.343938l.369561-1.0420424.460446-1.2801705c.155424-.443475.310649-.8979286.476631-1.3468155l.444709-1.2247619c.074849 1.0972448.138941 2.1837172.176539 3.253232.037549 1.0697209.080327 2.0617152.101691 2.970777h2.045513c-.03735-.7372694-.090884-1.5185564-.13904-2.3555097-.058913-.8313351-.117876-1.6682368-.182167-2.4996235-.058962-.8313351-.139239-1.6349402-.219566-2.394373-.091083-.7647417-.181967-1.4631478-.278428-2.0838271h-1.772463c-.144618.2826096-.294663.6374308-.465824 1.053021-.182216.4157449-.359004.8701985-.551778 1.3523306-.192724.4876987-.385498.9922004-.567465 1.4964445-.187395.5098621-.358755.9866338-.524787 1.4299026-.160603-.4432688-.326585-.9200405-.503373-1.4299026-.181967-.5042441-.364183-1.0086942-.54615-1.4964445-.182167-.4821321-.364134-.9365857-.530165-1.3523821-.165982-.4155387-.3106-.7703599-.439033-1.0529695h-1.868973c-.101641.6206793-.187346 1.3190854-.273051 2.0838786zm10.877188-2.0838786h2.014925v9.3333333h-2.014925zm-15.447761 0h2.014925v9.3333333h-2.014925zm25.522388 0v1.7735266h-4.028182v1.7237351h3.225649v1.7735266h-3.225649v4.062545h-2.016594v-9.3333333zm4.102955 5.5131193-1.838395-2.9536738-1.592918-2.5594455h2.162797s.228915.1815593 1.189885 1.8074551c.851034 1.4402161 1.026529 1.943277 1.026529 1.943277s.163995-.5227878.988196-1.9344694c.82769-1.4181714 1.201188-1.8162627 1.201188-1.8162627h2.162748l-3.404087 5.5131193v3.820214h-1.895943z" fill="#cb3b43" fill-rule="nonzero"/></g></svg>

<?xml version="1.0" encoding="UTF-8"?>
<svg width="45px" height="64px" viewBox="0 0 45 64" version="1.1" xmlns="http://www.w3.org/2000/svg" xmlns:xlink="http://www.w3.org/1999/xlink">
    <!-- Generator: Sketch 50.2 (55047) - http://www.bohemiancoding.com/sketch -->
    <title>8</title>
    <desc>Created with Sketch.</desc>
    <defs></defs>
    <g id="Desktop" stroke="none" stroke-width="1" fill="none" fill-rule="evenodd">
        <g id="logos" transform="translate(-880.000000, -191.000000)">
            <g id="8" transform="translate(790.000000, 183.000000)">
                <rect id="Rectangle-7" x="0" y="0" width="224" height="80"></rect>
                <path d="M105.447761,23.3333333 L119.552239,23.3333333 L119.552239,37.3333333 L105.447761,37.3333333 L105.447761,23.3333333 Z M105.447761,38.6666667 L119.552239,38.6666667 L119.552239,52.6666667 L105.447761,52.6666667 L105.447761,38.6666667 Z M120.895522,8 L135,8 L135,22 L120.895522,22 L120.895522,8 Z M105.447761,8 L119.552239,8 L119.552239,22 L105.447761,22 L105.447761,8 Z M90,8 L104.104478,8 L104.104478,22 L90,22 L90,8 Z M90,60.6666667 L90,62.8297821 L93.3189915,62.8297821 L93.3189915,72 L96.0837854,72 L96.0837854,62.8297821 L99.4029851,62.8297821 L99.4029851,60.6666667 L90,60.6666667 Z M104.6452,64.7505453 C104.554117,65.5099266 104.484597,66.3135317 104.420306,67.1448668 C104.356164,67.9762535 104.291823,68.8131552 104.243717,69.6444903 C104.184754,70.4814436 104.141827,71.2627306 104.104478,72 L106.144612,72 C106.173978,71.0096461 106.206132,70.0193829 106.241074,69.029223 C106.283403,67.9680581 106.341669,66.8906058 106.426328,65.8019686 L106.846137,67.0008044 C106.995934,67.4496398 107.14593,67.9040934 107.295826,68.3475684 C107.451201,68.7910433 107.59044,69.2231273 107.729679,69.6277389 C107.874297,70.0379687 107.986744,70.3815535 108.088435,70.6697813 L109.432373,70.6697813 L109.801934,69.6277389 L110.26238,68.3475684 C110.417804,67.9040934 110.573029,67.4496398 110.739011,67.0007529 L111.18372,65.775991 C111.258569,66.8732358 111.322661,67.9597082 111.360259,69.029223 C111.397808,70.0989439 111.440586,71.0909382 111.46195,72 L113.507463,72 C113.470113,71.2627306 113.416579,70.4814436 113.368423,69.6444903 C113.30951,68.8131552 113.250547,67.9762535 113.186256,67.1448668 C113.127294,66.3135317 113.047017,65.5099266 112.96669,64.7504938 C112.875607,63.9857521 112.784723,63.287346 112.688262,62.6666667 L110.915799,62.6666667 C110.771181,62.9492763 110.621136,63.3040975 110.449975,63.7196877 C110.267759,64.1354326 110.090971,64.5898862 109.898197,65.0720183 C109.705473,65.559717 109.512699,66.0642187 109.330732,66.5684628 C109.143337,67.0783249 108.971977,67.5550966 108.805945,67.9983654 C108.645342,67.5550966 108.47936,67.0783249 108.302572,66.5684628 C108.120605,66.0642187 107.938389,65.5597686 107.756422,65.0720183 C107.574255,64.5898862 107.392288,64.1354326 107.226257,63.7196362 C107.060275,63.3040975 106.915657,62.9492763 106.787224,62.6666667 L104.918251,62.6666667 C104.81661,63.287346 104.730905,63.9857521 104.6452,64.7505453 Z M115.522388,62.6666667 L117.537313,62.6666667 L117.537313,72 L115.522388,72 L115.522388,62.6666667 Z M100.074627,62.6666667 L102.089552,62.6666667 L102.089552,72 L100.074627,72 L100.074627,62.6666667 Z M125.597015,62.6666667 L125.597015,64.4401933 L121.568833,64.4401933 L121.568833,66.1639284 L124.794482,66.1639284 L124.794482,67.937455 L121.568833,67.937455 L121.568833,72 L119.552239,72 L119.552239,62.6666667 L125.597015,62.6666667 Z M129.69997,68.179786 L127.861575,65.2261122 L126.268657,62.6666667 L128.431454,62.6666667 C128.431454,62.6666667 128.660369,62.848226 129.621339,64.4741218 C130.472373,65.9143379 130.647868,66.4173988 130.647868,66.4173988 C130.647868,66.4173988 130.811863,65.894611 131.636064,64.4829294 C132.463754,63.064758 132.837252,62.6666667 132.837252,62.6666667 L135,62.6666667 L131.595913,68.179786 L131.595913,72 L129.69997,72 L129.69997,68.179786 Z" id="Timify" fill="#CB3B43" fill-rule="nonzero"></path>
            </g>
        </g>
    </g>
</svg>
